public/assets/images/bottom-faqs-second.svg

<svg width="1280" height="203" viewBox="0 0 1280 203" fill="none" xmlns="http://www.w3.org/2000/svg">
<path d="M-44 87.5006H1310V196.124C1310 196.124 959.864 92.6367 688.006 165.655C416.148 238.674 19.9976 184.041 -44 132.035C-44 65.3204 -44 87.5006 -44 87.5006Z" fill="#FFEDF0"/>
<path d="M1310 196.124C1310 196.124 959.864 92.6365 688.006 165.655C416.148 238.674 19.9976 184.041 -44 132.035" stroke="white" stroke-width="3"/>
<path opacity="0.62" d="M1296.19 176.441C1283.22 186.175 1250.94 174.531 1242.04 154.162C1234.96 137.973 1248.87 130.499 1244.92 108.629C1240.06 81.7541 1216.32 78.1174 1209.79 52.6106C1203.69 28.7886 1212.12 1.54689 1221.48 0.0621861C1231.23 -1.48924 1234.46 26.2279 1264.81 56.364C1286.07 77.4918 1293.89 73.2045 1302.24 89.3194C1312.58 109.221 1308.55 130.974 1303.39 158.808C1301.31 170.127 1299.57 173.897 1296.19 176.441Z" fill="#FAC9CF"/>
<path opacity="0.62" d="M1287.1 161.102C1289.27 114.484 1276.85 94.3742 1264.94 84.5819C1255.83 77.1166 1246.92 75.657 1237.75 64.8053C1224.72 49.4161 1223.21 29.381 1223.85 15.2764" stroke="white" stroke-width="1.5" stroke-linecap="round" stroke-linejoin="round"/>
<path opacity="0.62" d="M1203.09 109.355C1161.28 86.4834 1136.37 72.9043 1129.33 80.261C1119.82 90.1952 1140.19 141.234 1176.17 153.929C1198.01 161.644 1211.08 150.084 1252.84 158.55C1273.9 162.82 1284.36 168.559 1285.64 166.157C1288.34 161.06 1243.24 131.291 1203.09 109.355Z" fill="#FAC9CF"/>
<path opacity="0.62" d="M1138.2 93.6816C1151.6 120.606 1166.71 130.24 1177.76 134.144C1194.15 139.941 1206.03 134.711 1231.08 140.992C1242.9 143.968 1254.23 148.599 1264.75 154.746" stroke="white" stroke-width="1.5" stroke-linecap="round" stroke-linejoin="round"/>
<path opacity="0.62" d="M1148.32 55.4215C1148.54 58.7579 1150.13 77.7838 1165.1 92.831C1182.45 110.272 1196.72 101.172 1221.22 115.861C1250.33 133.293 1255.15 161.094 1262.02 158.692C1269.64 156.022 1272.17 118.655 1252.54 99.6623C1236.55 84.1897 1220.92 95.4501 1197.26 80.6281C1167.58 62.036 1163.38 26.3031 1154.52 28.4884C1148.52 29.9731 1147.79 47.0055 1148.32 55.4215Z" fill="#E2A3AE"/>
<path opacity="0.62" d="M1259.8 148.057C1258.13 138.364 1254.2 124.493 1243.05 114.109C1229.52 101.522 1215.33 103.265 1199.76 96.0421C1186.44 89.8614 1169.5 75.8902 1156.97 40.4492M1167.29 63.2702L1157.65 56.9477M1173.62 73.7382L1171.94 62.3027M1177.66 79.8355L1160.3 73.0376M1186.77 86.9587L1183.24 76.5992M1194.27 93.0226L1175.63 93.423M1203.63 98.0189L1197.96 87.4091M1216.18 101.656L1206.35 104.383M1222.06 103.207L1216.11 91.271M1234.07 107.644L1223.16 108.52M1241.3 112.39L1236.69 100.179" stroke="white" stroke-width="1.15" stroke-linecap="round" stroke-linejoin="round"/>
</svg>

<svg xmlns="http://www.w3.org/2000/svg" width="1280" height="203" fill="none"><path fill="#FFEDF0" d="M-44 87.5h1354v108.624S959.864 92.637 688.006 165.655C416.148 238.674 19.998 184.041-44 132.035V87.501Z"/><path stroke="#fff" stroke-width="3" d="M1310 196.124S959.864 92.637 688.006 165.655C416.148 238.674 19.998 184.041-44 132.035"/><path fill="#FAC9CF" d="M1296.19 176.441c-12.97 9.734-45.25-1.91-54.15-22.279-7.08-16.189 6.83-23.663 2.88-45.533-4.86-26.875-28.6-30.512-35.13-56.018-6.1-23.822 2.33-51.064 11.69-52.549 9.75-1.551 12.98 26.166 43.33 56.302 21.26 21.128 29.08 16.84 37.43 32.955 10.34 19.902 6.31 41.655 1.15 69.489-2.08 11.319-3.82 15.089-7.2 17.633Z" opacity=".62"/><path stroke="#fff" stroke-linecap="round" stroke-linejoin="round" stroke-width="1.5" d="M1287.1 161.102c2.17-46.618-10.25-66.728-22.16-76.52-9.11-7.465-18.02-8.925-27.19-19.777-13.03-15.389-14.54-35.424-13.9-49.529" opacity=".62"/><path fill="#FAC9CF" d="M1203.09 109.355c-41.81-22.872-66.72-36.45-73.76-29.094-9.51 9.934 10.86 60.973 46.84 73.668 21.84 7.715 34.91-3.845 76.67 4.621 21.06 4.27 31.52 10.009 32.8 7.607 2.7-5.097-42.4-34.866-82.55-56.802Z" opacity=".62"/><path stroke="#fff" stroke-linecap="round" stroke-linejoin="round" stroke-width="1.5" d="M1138.2 93.682c13.4 26.924 28.51 36.558 39.56 40.462 16.39 5.797 28.27.567 53.32 6.848a129.306 129.306 0 0 1 33.67 13.754" opacity=".62"/><path fill="#E2A3AE" d="M1148.32 55.422c.22 3.336 1.81 22.362 16.78 37.409 17.35 17.441 31.62 8.341 56.12 23.03 29.11 17.432 33.93 45.233 40.8 42.831 7.62-2.67 10.15-40.037-9.48-59.03-15.99-15.472-31.62-4.212-55.28-19.034-29.68-18.592-33.88-54.325-42.74-52.14-6 1.485-6.73 18.517-6.2 26.934Z" opacity=".62"/><path stroke="#fff" stroke-linecap="round" stroke-linejoin="round" stroke-width="1.15" d="M1259.8 148.057c-1.67-9.693-5.6-23.564-16.75-33.948-13.53-12.587-27.72-10.844-43.29-18.067-13.32-6.18-30.26-20.152-42.79-55.593m10.32 22.821-9.64-6.322m15.97 16.79-1.68-11.435m5.72 17.532-17.36-6.797m26.47 13.92-3.53-10.359m11.03 16.424-18.64.4m28 4.596-5.67-10.61m18.22 14.247-9.83 2.727m15.71-1.176-5.95-11.936m17.96 16.373-10.91.876m18.14 3.87-4.61-12.211" opacity=".62"/></svg>
